static/images/logos/goldcast.svg

<svg width="538" height="75" viewBox="0 0 538 75" fill="none" xmlns="http://www.w3.org/2000/svg">
<g clip-path="url(#clip0_750_874)">
<path d="M74.9376 26.0797H84.6938L64.5249 55.7681H61.3472L40.7056 26.0797H50.5668L62.9755 44.7391L74.9376 26.0797Z" fill="#00000F"/>
<path d="M126.581 41.6661L93.5963 41.6922C93.5963 44.3225 95.7892 46.8746 98.6648 48.0856C102.722 49.8044 105.112 49.9476 109.787 49.9476C115.932 49.9476 120.908 48.7887 125.885 46.3147V52.4347C122.642 54.5962 116.47 56.3671 108.29 56.3671C102.801 56.3671 97.9952 55.7942 94.6074 54.2316C91.2853 52.6951 89.5914 51.4972 87.845 48.945C86.1906 46.5231 85.127 43.7105 85.127 40.6374C85.127 36.041 87.0178 32.5513 90.4843 29.4913C94.3579 26.0797 100.083 25.0901 106.964 25.0901C113.844 25.0901 118.545 26.9782 122.103 30.2335C125.78 33.593 126.568 37.4603 126.568 40.9109L126.581 41.6661ZM94.3448 36.2493L117.862 36.2232C117.376 34.4133 116.024 32.9679 114.133 31.9002C112.242 30.8325 109.865 30.0902 106.675 30.0902C103.484 30.0902 101.015 30.6111 98.7305 31.757C96.669 32.7987 95.0801 34.4133 94.3448 36.2493Z" fill="#00000F"/>
<path d="M142.154 26.0797V29.8038C146.356 26.887 151.517 25.4156 156.677 25.4156C159.54 25.4156 162.205 25.8974 164.674 26.848C167.142 27.8116 168.679 29.0486 169.874 30.7804C171.134 32.6294 171.804 35.0904 171.804 38.6973V55.664H163.242V40.1036C163.242 37.0697 162.061 34.8951 160.629 33.606C159.198 32.3039 156.822 31.4705 153.447 31.4705C149.14 31.4705 145.266 33.0721 142.154 35.8587V55.677H133.422V26.0797H142.154Z" fill="#00000F"/>
<path d="M175.362 30.8064L190.226 16.7174H190.738V25.2073H202.386V31.8741H190.738V43.8927C190.738 47.6298 193.023 49.4919 196.66 49.4919C199.273 49.4919 201.335 48.8799 203.856 47.2001V54.0884C200.836 55.5728 198.604 56.1718 194.73 56.1718C191.211 56.1718 189.439 55.5988 186.839 53.88C186.024 53.3592 185.342 52.5909 184.803 51.9399C184.265 51.2888 183.753 50.3252 183.398 49.2835C183.044 48.2418 182.86 46.2366 182.86 43.2807V31.8872H175.349L175.362 30.8064Z" fill="#00000F"/>
<path d="M37.7643 47.7079V54.7915C32.9584 55.8983 28.2575 56.4582 23.6749 56.4582C16.0984 56.4582 10.5178 55.0649 6.23714 52.2784C1.95649 49.4918 0 45.7548 0 41.0671C0 36.3795 1.82519 32.395 5.98766 29.4912C10.1501 26.5875 15.5338 25.2723 22.6901 25.2723C25.1849 25.2723 27.4172 25.4156 29.3999 25.7151C31.3827 26.0145 33.825 26.5614 36.7401 27.3688V34.5955C31.8817 32.6684 27.9293 31.9262 23.2416 31.9262C19.2367 31.9262 14.956 32.9028 12.5005 34.4523C9.76934 36.1841 8.83705 38.6452 8.83705 40.8718C8.83705 43.476 10.3734 45.7027 12.8813 47.2782C15.56 48.945 20.6023 49.7262 25.0536 49.7262C28.7565 49.7132 32.9846 49.0491 37.7643 47.7079Z" fill="#4291E9"/>
</g>
<path d="M232 1.08887L232 72.9789" stroke="#00000F" stroke-width="2.17768" stroke-linecap="round"/>
<path d="M276.901 36.7593C276.901 27.5036 269.26 19.8614 260 19.8614V12.8027C273.158 12.8027 283.96 23.6049 283.96 36.7593C283.96 49.9138 273.158 60.7159 260 60.7159V53.6573C269.26 53.6573 276.901 46.015 276.901 36.7593Z" fill="#FF4200"/>
<path d="M289.833 37.0339C289.833 20.6831 276.356 7.20807 260 7.20807V1.08887C279.735 1.08887 295.952 17.3023 295.952 37.0339C295.952 56.7654 279.735 72.9789 260 72.9789V66.8597C276.356 66.8597 289.833 53.3847 289.833 37.0339Z" fill="#FF4200"/>
<path d="M329.152 60.7825C325.101 60.7825 321.486 59.7693 318.31 57.7445C315.133 55.7183 312.634 52.9174 310.803 49.3374C308.972 45.759 308.057 41.6328 308.057 36.9603C308.057 32.2877 308.978 28.0387 310.818 24.4602C312.656 20.8818 315.187 18.0895 318.402 16.0849C321.618 14.0804 325.295 13.0745 329.431 13.0745C332.78 13.0745 335.847 13.7451 338.629 15.0892C341.409 16.4332 343.715 18.2933 345.546 20.6722C347.377 23.0511 348.527 25.8115 349.004 28.955H342.024C341.38 26.1006 339.934 23.7925 337.682 22.0235C335.427 20.256 332.709 19.3729 329.522 19.3729C326.607 19.3729 324.059 20.1071 321.874 21.5755C319.693 23.0439 317.995 25.0976 316.788 27.7337C315.581 30.3699 314.974 33.4468 314.974 36.9631C314.974 40.4795 315.578 43.5246 316.788 46.1608C317.999 48.7969 319.693 50.8434 321.874 52.3017C324.055 53.7585 326.614 54.4898 329.55 54.4898C331.907 54.4898 334.056 53.9926 336.001 52.9997C337.947 52.0083 339.513 50.589 340.703 48.7507C341.892 46.9123 342.527 44.717 342.612 42.1762H331.071V36.4371H349.342V60.8171H344.285L343.541 53.7758C342.116 55.8657 340.181 57.5552 337.74 58.8473C335.302 60.1393 332.436 60.7853 329.146 60.7853L329.154 60.781L329.152 60.7825Z" fill="#020617"/>
<path d="M368.058 60.7824C364.935 60.7824 362.196 60.0583 359.839 58.6116C357.481 57.1649 355.646 55.156 354.334 52.5935C353.021 50.0311 352.364 47.0741 352.364 43.7211C352.364 40.3681 353.02 37.3475 354.334 34.7706C355.646 32.198 357.481 30.179 359.839 28.7222C362.196 27.2639 364.935 26.5341 368.058 26.5341C371.181 26.5341 373.917 27.2639 376.263 28.7222C378.61 30.179 380.438 32.1951 381.755 34.7706C383.067 37.3431 383.724 40.3291 383.724 43.7211C383.724 47.1131 383.068 50.0282 381.755 52.5935C380.441 55.1589 378.61 57.1634 376.263 58.6116C373.915 60.0583 371.181 60.7824 368.058 60.7824ZM368.058 55.1386C370.87 55.1386 373.083 54.1053 374.696 52.0371C376.309 49.9689 377.117 47.1984 377.117 43.7225C377.117 40.2467 376.304 37.4053 374.681 35.3155C373.058 33.2256 370.853 32.1821 368.061 32.1821C365.268 32.1821 363.06 33.2198 361.44 35.2981C359.817 37.3764 359.005 40.1831 359.005 43.7182C359.005 47.2533 359.813 49.9892 361.426 52.0472C363.038 54.1053 365.251 55.1357 368.064 55.1357L368.056 55.1386H368.058Z" fill="#020617"/>
<path d="M393.495 13.8232V60.8144H386.953V13.8232H393.495Z" fill="#020617"/>
<path d="M446.103 60.7825C442.98 60.7825 440.245 60.0584 437.898 58.6117C435.551 57.165 433.726 55.1532 432.424 52.5806C431.122 50.0081 430.468 47.054 430.468 43.7255C430.468 40.3971 431.126 37.3765 432.438 34.7938C433.75 32.2112 435.576 30.1878 437.911 28.731C440.248 27.2741 442.977 26.5428 446.1 26.5428C448.705 26.5428 451.037 27.0545 453.095 28.0777C455.152 29.101 456.821 30.513 458.103 32.3123C459.384 34.1117 460.16 36.1697 460.428 38.485H453.913C453.582 36.6467 452.756 35.1364 451.432 33.957C450.109 32.7777 448.34 32.1895 446.128 32.1895C443.293 32.1895 441.081 33.2344 439.49 35.3228C437.898 37.4126 437.101 40.215 437.101 43.7299C437.101 47.2447 437.894 49.9763 439.49 52.0444C441.081 54.1126 443.293 55.146 446.128 55.146C448.384 55.146 450.119 54.5707 451.341 53.4232C452.562 52.2757 453.387 50.7408 453.822 48.8172H460.428C460.181 51.0935 459.415 53.1327 458.135 54.9436C456.853 56.7545 455.176 58.1796 453.108 59.2245C451.04 60.2694 448.705 60.7911 446.1 60.7911L446.103 60.781V60.7825Z" fill="#020617"/>
<path d="M474.728 60.8143C471.459 60.8143 468.752 59.9818 466.6 58.3154C464.451 56.649 463.472 53.9392 463.472 50.6714C463.472 48.1899 464.086 46.2807 465.318 44.9468C466.551 43.6128 468.152 42.656 470.125 42.0779C472.097 41.4984 474.195 41.0764 476.407 40.8075C478.454 40.5604 480.078 40.3523 481.278 40.1861C482.477 40.0199 483.329 39.7727 483.836 39.4418C484.345 39.1108 484.595 38.5414 484.595 37.7378V37.4589C484.595 35.8676 484.017 34.5582 482.859 33.535C481.701 32.5118 480.078 32.0001 477.988 32.0001C475.899 32.0001 474.195 32.5016 472.871 33.5032C471.547 34.5048 470.824 35.7621 470.7 37.2724H464.282C464.426 34.1492 465.738 31.5969 468.22 29.6111C470.7 27.6239 473.989 26.6324 478.084 26.6324C482.178 26.6324 485.29 27.6239 487.605 29.6111C489.92 31.594 491.078 34.2518 491.078 37.5832V60.8374H484.626V55.3888H484.504C483.821 56.7126 482.644 58.1521 481.165 59.2172C479.687 60.2838 477.54 60.8157 474.728 60.8157V60.8143ZM476.157 55.2948C479.051 55.2948 481.185 54.5462 482.563 53.046C483.938 51.5458 484.624 49.7956 484.624 47.7881V43.9409C484.189 44.2935 483.209 44.6071 481.677 44.8861C480.145 45.165 478.514 45.4295 476.774 45.6766C474.975 45.9454 473.394 46.4527 472.028 47.197C470.662 47.9413 469.98 49.1423 469.98 50.7972C469.98 52.2049 470.535 53.3061 471.639 54.101C472.744 54.8988 474.251 55.2934 476.153 55.2934H476.157V55.2948Z" fill="#020617"/>
<path d="M507.548 60.8142C505.046 60.8142 502.79 60.4124 500.786 59.6031C498.781 58.7952 497.162 57.5985 495.934 56.003C494.703 54.4117 494.013 52.4346 493.873 50.0774H500.325C500.695 53.7585 503.062 55.5968 507.428 55.5968C509.496 55.5968 511.134 55.1734 512.345 54.3265C513.555 53.4795 514.159 52.4028 514.159 51.1006C514.159 49.9849 513.724 49.0888 512.857 48.4182C511.988 47.7476 510.852 47.2534 509.443 46.947L504.016 45.7358C497.751 44.3701 494.617 41.2498 494.617 36.3691C494.617 33.4757 495.771 31.1171 498.076 29.296C500.381 27.475 503.405 26.5674 507.149 26.5674C510.894 26.5674 513.897 27.5241 516.283 29.4362C518.672 31.3497 519.908 33.9613 519.989 37.2681H513.724C513.703 35.6768 513.104 34.3559 511.924 33.3124C510.746 32.2675 509.186 31.7457 507.242 31.7457C505.298 31.7457 503.903 32.1793 502.805 33.0479C501.708 33.9165 501.16 34.9817 501.16 36.2419C501.16 37.3577 501.581 38.2566 502.417 38.9417C503.253 39.6267 504.408 40.1311 505.876 40.4621L511.459 41.705C514.641 42.4074 516.989 43.4943 518.499 44.9626C520.011 46.431 520.765 48.3547 520.765 50.7336C520.765 52.8234 520.19 54.6155 519.042 56.1157C517.896 57.6159 516.329 58.7735 514.342 59.5886C512.358 60.4038 510.093 60.8128 507.548 60.8128V60.8142Z" fill="#020617"/>
<path d="M537.489 27.2843V32.6809H530.819V52.1832C530.819 53.4045 531.074 54.2514 531.578 54.7283C532.086 55.2053 532.99 55.4408 534.292 55.4408H537.486V60.8374H533.36C527.3 60.8374 524.272 58.2331 524.272 53.02V18.3483H530.815V27.28H537.486L537.489 27.2843Z" fill="#020617"/>
<path d="M410.839 60.9704C402.185 60.9704 396.427 53.984 396.427 43.6938C396.427 33.4035 402.216 26.4172 410.807 26.4172C415.118 26.4172 418.863 28.2107 421.003 31.8932H421.067V13.4214H427.706V60.3099H421.193V55.2428H421.129C418.895 59.1132 415.182 60.9704 410.839 60.9704ZM412.192 55.2428C417.857 55.2428 421.506 50.6802 421.506 43.6938C421.506 36.7074 417.857 32.1129 412.192 32.1129C406.843 32.1129 403.16 36.1727 403.16 43.6938C403.16 51.2149 406.843 55.2428 412.192 55.2428Z" fill="#020617"/>
<defs>
<clipPath id="clip0_750_874">
<rect width="204" height="40.8" fill="white" transform="translate(0 16.6339)"/>
</clipPath>
</defs>
</svg>

<svg xmlns="http://www.w3.org/2000/svg" width="538" height="75" fill="none" viewBox="0 0 538 75"><g clip-path="url(#a)"><path fill="#00000f" d="M74.938 26.08h9.756l-20.17 29.688h-3.177L40.706 26.08h9.86l12.41 18.66zM126.581 41.666l-32.985.026c0 2.63 2.193 5.183 5.069 6.394 4.057 1.718 6.447 1.862 11.122 1.862 6.145 0 11.121-1.16 16.098-3.633v6.12c-3.243 2.161-9.415 3.932-17.595 3.932-5.489 0-10.295-.573-13.683-2.135-3.322-1.537-5.016-2.735-6.762-5.287-1.654-2.422-2.718-5.234-2.718-8.308 0-4.596 1.89-8.086 5.357-11.146 3.874-3.411 9.599-4.4 16.48-4.4 6.88 0 11.581 1.887 15.139 5.142 3.677 3.36 4.465 7.227 4.465 10.678zM94.345 36.25l23.517-.026c-.486-1.81-1.838-3.255-3.729-4.323-1.891-1.067-4.268-1.81-7.458-1.81s-5.66.521-7.944 1.667c-2.062 1.042-3.65 2.656-4.386 4.492M142.154 26.08v3.724c4.202-2.917 9.363-4.388 14.523-4.388 2.863 0 5.528.481 7.997 1.432 2.468.964 4.005 2.2 5.2 3.932 1.26 1.85 1.93 4.31 1.93 7.917v16.967h-8.562v-15.56c0-3.034-1.181-5.209-2.613-6.498-1.431-1.302-3.807-2.136-7.182-2.136-4.307 0-8.181 1.602-11.293 4.389v19.818h-8.732V26.08zM175.362 30.806l14.864-14.089h.512v8.49h11.648v6.667h-11.648v12.019c0 3.737 2.285 5.599 5.922 5.599 2.613 0 4.675-.612 7.196-2.292v6.888c-3.02 1.485-5.252 2.084-9.126 2.084-3.519 0-5.291-.573-7.891-2.292-.815-.52-1.497-1.29-2.036-1.94-.538-.651-1.05-1.615-1.405-2.657-.354-1.041-.538-3.046-.538-6.002V31.887h-7.511z"/><path fill="#4291e9" d="M37.764 47.708v7.084c-4.806 1.106-9.507 1.666-14.09 1.666-7.576 0-13.156-1.393-17.437-4.18C1.957 49.492 0 45.755 0 41.068s1.825-8.673 5.988-11.577c4.162-2.904 9.546-4.219 16.702-4.219 2.495 0 4.727.144 6.71.443s4.425.846 7.34 1.654v7.227c-4.858-1.928-8.81-2.67-13.498-2.67-4.005 0-8.286.977-10.741 2.526-2.732 1.732-3.664 4.193-3.664 6.42 0 2.604 1.536 4.83 4.044 6.406 2.679 1.667 7.721 2.448 12.173 2.448 3.703-.013 7.93-.677 12.71-2.018"/></g><path stroke="#00000f" stroke-linecap="round" stroke-width="2.178" d="M232 1.089v71.89"/><path fill="#ff4200" d="M276.901 36.76c0-9.256-7.641-16.899-16.901-16.899v-7.058c13.158 0 23.96 10.802 23.96 23.956S273.158 60.716 260 60.716v-7.059c9.26 0 16.901-7.642 16.901-16.898"/><path fill="#ff4200" d="M289.833 37.034c0-16.35-13.477-29.826-29.833-29.826v-6.12c19.735 0 35.952 16.214 35.952 35.946S279.735 72.979 260 72.979v-6.12c16.356 0 29.833-13.474 29.833-29.825"/><path fill="#020617" d="M329.152 60.783q-6.077-.001-10.842-3.038c-3.177-2.027-5.676-4.828-7.507-8.408q-2.746-5.367-2.746-12.377c0-4.672.921-8.921 2.761-12.5 1.838-3.578 4.369-6.37 7.584-8.375q4.825-3.009 11.029-3.01 5.024-.001 9.198 2.014 4.17 2.015 6.917 5.583c1.831 2.38 2.981 5.14 3.458 8.283h-6.98q-.965-4.28-4.342-6.931-3.381-2.652-8.16-2.651-4.372 0-7.648 2.203c-2.181 1.468-3.879 3.522-5.086 6.158q-1.812 3.954-1.814 9.23c0 3.516.604 6.56 1.814 9.197q1.815 3.953 5.086 6.14t7.676 2.189q3.535 0 6.451-1.49a12 12 0 0 0 4.702-4.25c1.189-1.838 1.824-4.033 1.909-6.574h-11.541v-5.739h18.271v24.38h-5.057l-.744-7.041q-2.139 3.135-5.801 5.071-3.658 1.938-8.594 1.938l.008-.004zM368.058 60.782q-4.684 0-8.219-2.17-3.537-2.173-5.505-6.019-1.97-3.843-1.97-8.872c0-3.353.656-6.373 1.97-8.95 1.312-2.573 3.147-4.592 5.505-6.049q3.535-2.187 8.219-2.188 4.685 0 8.205 2.188c2.347 1.457 4.175 3.473 5.492 6.049q1.969 3.86 1.969 8.95c0 3.392-.656 6.307-1.969 8.873q-1.971 3.847-5.492 6.018t-8.205 2.17m0-5.643q4.218 0 6.638-3.102t2.421-8.315c0-3.475-.813-6.317-2.436-8.407q-2.433-3.134-6.62-3.133-4.19 0-6.621 3.116-2.435 3.117-2.435 8.42c0 3.535.808 6.271 2.421 8.33q2.418 3.087 6.638 3.088l-.008.003zM393.495 13.823v46.991h-6.542v-46.99zM446.103 60.783q-4.685-.001-8.205-2.171-3.52-2.172-5.474-6.031-1.954-3.861-1.956-8.856c0-3.328.658-6.349 1.97-8.931q1.97-3.876 5.473-6.063 3.505-2.187 8.189-2.188 3.908 0 6.995 1.535 3.085 1.535 5.008 4.234 1.922 2.7 2.325 6.173h-6.515q-.496-2.758-2.481-4.528t-5.304-1.767q-4.252 0-6.638 3.133-2.389 3.135-2.389 8.407c0 3.515.793 6.246 2.389 8.314q2.386 3.103 6.638 3.102 3.382 0 5.213-1.723 1.83-1.72 2.481-4.606h6.606q-.372 3.412-2.293 6.127-1.924 2.715-5.027 4.28-3.101 1.567-7.008 1.567l.003-.01zM474.728 60.814q-4.902 0-8.128-2.499c-2.149-1.666-3.128-4.376-3.128-7.644q-.001-3.722 1.846-5.724 1.849-2.001 4.807-2.87a39 39 0 0 1 6.282-1.27q3.07-.371 4.871-.62 1.798-.25 2.558-.745c.509-.331.759-.9.759-1.704v-.28q0-2.387-1.736-3.923Q481.122 32 477.988 32q-3.132 0-5.117 1.503-1.986 1.504-2.171 3.77h-6.418q.216-4.684 3.938-7.662 3.72-2.98 9.864-2.979c4.094 0 7.206.992 9.521 2.98q3.473 2.974 3.473 7.971v23.254h-6.452V55.39h-.122c-.683 1.324-1.86 2.763-3.339 3.828q-2.218 1.6-6.437 1.599zm1.429-5.52q4.34.001 6.406-2.248 2.062-2.248 2.061-5.258v-3.847q-.65.527-2.947.945c-1.532.279-3.163.543-4.903.79q-2.698.405-4.746 1.521-2.048 1.117-2.048 3.6.001 2.112 1.659 3.304c1.105.798 2.612 1.192 4.514 1.192zM507.548 60.814q-3.755.001-6.762-1.21c-2.005-.809-3.624-2.005-4.852-3.601-1.231-1.591-1.921-3.568-2.061-5.926h6.452q.555 5.522 7.103 5.52 3.101 0 4.917-1.27 1.814-1.272 1.814-3.226 0-1.675-1.302-2.683c-.869-.67-2.005-1.165-3.414-1.471l-5.427-1.211q-9.398-2.047-9.399-9.367 0-4.34 3.459-7.073 3.457-2.73 9.073-2.729c3.745 0 6.748.957 9.134 2.87q3.584 2.87 3.706 7.831h-6.265q-.03-2.388-1.8-3.956-1.767-1.566-4.682-1.566c-1.944 0-3.339.433-4.437 1.302q-1.645 1.303-1.645 3.194.001 1.673 1.257 2.7 1.256 1.026 3.459 1.52l5.583 1.243q4.774 1.054 7.04 3.258 2.267 2.202 2.266 5.77 0 3.134-1.723 5.383-1.72 2.25-4.7 3.473-2.976 1.223-6.794 1.224zM537.489 27.284v5.397h-6.67v19.502q.001 1.83.759 2.545.762.714 2.714.713h3.194v5.396h-4.126q-9.089.001-9.088-7.817V18.348h6.543v8.932h6.671zM410.839 60.97c-8.654 0-14.412-6.986-14.412-17.276s5.789-17.277 14.38-17.277c4.311 0 8.056 1.794 10.196 5.476h.064V13.421h6.639V60.31h-6.513v-5.067h-.064c-2.234 3.87-5.947 5.727-10.29 5.727m1.353-5.727c5.665 0 9.314-4.563 9.314-11.55 0-6.986-3.649-11.58-9.314-11.58-5.349 0-9.032 4.06-9.032 11.58 0 7.522 3.683 11.55 9.032 11.55"/><defs><clipPath id="a"><path fill="#fff" d="M0 16.634h204v40.8H0z"/></clipPath></defs></svg>
